!!!SOCIAL_FUNCTION:	rain dance song
!!!PDT:	1957
!!!OTL: No_72_The_Badger_Woman_Speaks.krn
!!!LING_GROUP: Keresan
!!!LANG: Tone
!!!REG: Southwest
**kern
*staff1
=1-
=
*clefF4
*k[f#]
*M2/4
16E\LL
16E\J
8E\J
8E\L
8E\J
=2
16E\LK
(8E\
16BB\Jk)
16AA/LL
16AA/J
8AA/J
=3
8BB/L
8AA/J
8GG/L
8EE/J
=4
*M3/4
16GG/LK
8GG/
16EE/Jk
16EE/LL
16EE/
16EE/
16EE/JJ
8EE/
8r
=5
*M2/4
(16BB/LL
16AA/)
(16BB/
16AA/JJ)
16AA/LL
16AA/J
8AA/J
=6
(16AA/LL
16GG/J)
8GG/J
16EE/LL
16EE/J
8EE/J
=7
16GG/LK
(8GG/
16EE/Jk)
8EE/
8r
=8
*M3/4
16AA/LL
16AA/J
8AA/J
16BB/LK
8BB/
16AA/Jk
16GG/LL
16GG/J
8EE/J
=9
*M2/4
16GG/LK
8EE/
16EE/Jk
8EE/L
8GG/J
=10
*M3/4
(16GG/LK
8EE/)
16EE/Jk
8EE/L
16EE/L
16EE/JJ
8EE/
8r
=11
*M2/4
(16BB/LL
16GG/J)
8GG/J
8GG/
8r
=12
*M3/4
(16GG/LL
16EE/J)
8EE/J
16EE/LL
16EE/J
8EE/J
8EE/
8r
=13:|!
*M5/8
16A\LL
16A\JJ
4A\
16A\LL
16G\
16E\JJ
16r
=14
*M3/4
8A\L
8B\J
4A\
16A\LL
16G\J
8E\J
=15
*M2/4
8A\L
8A\J
8.E\L
16E\Jk
=16
*M3/4
4A\
(16A\LL
16E\J)
8D\J
8C/L
8AA/J
=17
16C/LK
8C/
16AA/Jk
16AA/LK
8.AA/J
16AA/LL
16GG/
16GG/
16FF#/JJ
=18
8AA/L
8AA/J
8AA/L
8AA/J
8AA/
8r
==
*-
